assets/images/arrow.svg

<svg width="24" height="24" viewBox="0 0 24 24" fill="none" xmlns="http://www.w3.org/2000/svg">
<path d="M13.125 19.3001L19.725 12.7001C19.825 12.6001 19.896 12.4917 19.938 12.3751C19.98 12.2584 20.0007 12.1334 20 12.0001C20 11.8667 19.979 11.7417 19.937 11.6251C19.895 11.5084 19.8243 11.4001 19.725 11.3001L13.125 4.70006C12.9417 4.51673 12.7123 4.42106 12.437 4.41306C12.1617 4.40506 11.9243 4.50073 11.725 4.70006C11.525 4.88339 11.4207 5.11273 11.412 5.38806C11.4033 5.66339 11.4993 5.90073 11.7 6.10006L16.6 11.0001H5.42498C5.14165 11.0001 4.90398 11.0961 4.71198 11.2881C4.51998 11.4801 4.42432 11.7174 4.42498 12.0001C4.42498 12.2834 4.52065 12.5211 4.71198 12.7131C4.90332 12.9051 5.14098 13.0007 5.42498 13.0001H16.6L11.7 17.9001C11.5167 18.0834 11.4207 18.3167 11.412 18.6001C11.4033 18.8834 11.4993 19.1167 11.7 19.3001C11.8833 19.5001 12.1167 19.6001 12.4 19.6001C12.6833 19.6001 12.925 19.5001 13.125 19.3001Z" fill="#3F51B5"/>
</svg>

<svg xmlns="http://www.w3.org/2000/svg" width="24" height="24" fill="none" xmlns:v="https://vecta.io/nano"><path d="M13.125 19.3l6.6-6.6c.1-.1.171-.208.213-.325A1.08 1.08 0 0 0 20 12a1.1 1.1 0 0 0-.063-.375.89.89 0 0 0-.212-.325l-6.6-6.6c-.183-.183-.413-.279-.688-.287a.93.93 0 0 0-.712.287c-.2.183-.304.413-.313.688s.087.513.288.712l4.9 4.9H5.425c-.283 0-.521.096-.713.288s-.288.429-.287.712a.97.97 0 0 0 .287.713c.191.192.429.288.713.287H16.6l-4.9 4.9c-.183.183-.279.417-.288.7s.087.517.288.7c.183.2.417.3.7.3s.525-.1.725-.3z" fill="#3f51b5"/></svg>
